app/assets/images/icons/active/luggage-storage.svg

<?xml version="1.0" encoding="UTF-8" standalone="no"?>
<svg width="32px" height="232px" viewBox="0 0 32 232" version="1.1" xmlns="http://www.w3.org/2000/svg" xmlns:xlink="http://www.w3.org/1999/xlink" xmlns:sketch="http://www.bohemiancoding.com/sketch/ns">
    <title>luggage-storage</title>
    <description>Created with Sketch (http://www.bohemiancoding.com/sketch)</description>
    <defs></defs>
    <g id="Hotel-facilities" stroke="none" stroke-width="1" fill="none" fill-rule="evenodd" sketch:type="MSPage">
        <path d="M16.1229037,124.00003 C10.9609487,124.00003 6.5,127.50503 6.5,131.83203 L6.5,144.38703 C6.5,146.98303 8.71226641,149.00003 11.338258,149.00003 L20.863041,149.00003 C23.4880211,149.00003 25.5,146.98303 25.5,144.38703 L25.5,131.83203 C25.5,127.50503 21.329367,124.00003 16.1229037,124.00003 L16.1229037,124.00003 L16.1229037,124.00003 L16.1229037,124.00003 Z M17.9780919,144.58903 C18.0064154,144.69403 17.9821381,144.80703 17.9133525,144.89403 C17.8455784,144.98303 17.7434116,145.03203 17.6301177,145.03203 L14.5681467,145.03203 C14.4578875,145.03203 14.354709,144.98303 14.2879465,144.89403 C14.2161263,144.80703 14.1948837,144.69403 14.2242187,144.58903 L15.088085,141.33603 C14.4953149,140.98703 14.124075,140.35903 14.124075,139.66203 C14.124075,138.58203 15.0101954,137.70903 16.1016611,137.70903 C17.188069,137.70903 18.075201,138.58203 18.075201,139.66203 C18.075201,140.35903 17.703961,140.98703 17.1132141,141.33603 L17.9780919,144.58903 L17.9780919,144.58903 L17.9780919,144.58903 L17.9780919,144.58903 Z M22.5553692,133.39303 L9.71168078,133.39303 L9.71168078,131.83203 C9.71168078,129.23603 12.7443167,127.12203 16.1330192,127.12203 C19.5014907,127.12203 22.5553692,129.23603 22.5553692,131.83203 L22.5553692,133.39303 L22.5553692,133.39303 Z M22.5553692,133.39303" id="luggage-storage--white" fill="#206FAC" sketch:type="MSShapeGroup"></path>
        <path d="M16.1229037,84.0000303 C10.9609487,84.0000303 6.5,87.5050303 6.5,91.8320303 L6.5,104.38703 C6.5,106.98303 8.71226641,109.00003 11.338258,109.00003 L20.863041,109.00003 C23.4880211,109.00003 25.5,106.98303 25.5,104.38703 L25.5,91.8320303 C25.5,87.5050303 21.329367,84.0000303 16.1229037,84.0000303 L16.1229037,84.0000303 L16.1229037,84.0000303 L16.1229037,84.0000303 Z M17.9780919,104.58903 C18.0064154,104.69403 17.9821381,104.80703 17.9133525,104.89403 C17.8455784,104.98303 17.7434116,105.03203 17.6301177,105.03203 L14.5681467,105.03203 C14.4578875,105.03203 14.354709,104.98303 14.2879465,104.89403 C14.2161263,104.80703 14.1948837,104.69403 14.2242187,104.58903 L15.088085,101.33603 C14.4953149,100.98703 14.124075,100.35903 14.124075,99.6620303 C14.124075,98.5820303 15.0101954,97.7090303 16.1016611,97.7090303 C17.188069,97.7090303 18.075201,98.5820303 18.075201,99.6620303 C18.075201,100.35903 17.703961,100.98703 17.1132141,101.33603 L17.9780919,104.58903 L17.9780919,104.58903 L17.9780919,104.58903 L17.9780919,104.58903 Z M22.5553692,93.3930303 L9.71168078,93.3930303 L9.71168078,91.8320303 C9.71168078,89.2360303 12.7443167,87.1220303 16.1330192,87.1220303 C19.5014907,87.1220303 22.5553692,89.2360303 22.5553692,91.8320303 L22.5553692,93.3930303 L22.5553692,93.3930303 Z M22.5553692,93.3930303" id="luggage-storage--white" fill="#FFFFFF" sketch:type="MSShapeGroup"></path>
        <path d="M16.1229037,44.0000303 C10.9609487,44.0000303 6.5,47.5050303 6.5,51.8320303 L6.5,64.3870303 C6.5,66.9830303 8.71226641,69.0000303 11.338258,69.0000303 L20.863041,69.0000303 C23.4880211,69.0000303 25.5,66.9830303 25.5,64.3870303 L25.5,51.8320303 C25.5,47.5050303 21.329367,44.0000303 16.1229037,44.0000303 L16.1229037,44.0000303 L16.1229037,44.0000303 L16.1229037,44.0000303 Z M17.9780919,64.5890303 C18.0064154,64.6940303 17.9821381,64.8070303 17.9133525,64.8940303 C17.8455784,64.9830303 17.7434116,65.0320303 17.6301177,65.0320303 L14.5681467,65.0320303 C14.4578875,65.0320303 14.354709,64.9830303 14.2879465,64.8940303 C14.2161263,64.8070303 14.1948837,64.6940303 14.2242187,64.5890303 L15.088085,61.3360303 C14.4953149,60.9870303 14.124075,60.3590303 14.124075,59.6620303 C14.124075,58.5820303 15.0101954,57.7090303 16.1016611,57.7090303 C17.188069,57.7090303 18.075201,58.5820303 18.075201,59.6620303 C18.075201,60.3590303 17.703961,60.9870303 17.1132141,61.3360303 L17.9780919,64.5890303 L17.9780919,64.5890303 L17.9780919,64.5890303 L17.9780919,64.5890303 Z M22.5553692,53.3930303 L9.71168078,53.3930303 L9.71168078,51.8320303 C9.71168078,49.2360303 12.7443167,47.1220303 16.1330192,47.1220303 C19.5014907,47.1220303 22.5553692,49.2360303 22.5553692,51.8320303 L22.5553692,53.3930303 L22.5553692,53.3930303 Z M22.5553692,53.3930303" id="luggage-storage--light-grey" fill="#67737B" sketch:type="MSShapeGroup"></path>
        <path d="M16.1229037,4.00003033 C10.9609487,4.00003033 6.5,7.50503033 6.5,11.8320303 L6.5,24.3870303 C6.5,26.9830303 8.71226641,29.0000303 11.338258,29.0000303 L20.863041,29.0000303 C23.4880211,29.0000303 25.5,26.9830303 25.5,24.3870303 L25.5,11.8320303 C25.5,7.50503033 21.329367,4.00003033 16.1229037,4.00003033 L16.1229037,4.00003033 L16.1229037,4.00003033 L16.1229037,4.00003033 Z M17.9780919,24.5890303 C18.0064154,24.6940303 17.9821381,24.8070303 17.9133525,24.8940303 C17.8455784,24.9830303 17.7434116,25.0320303 17.6301177,25.0320303 L14.5681467,25.0320303 C14.4578875,25.0320303 14.354709,24.9830303 14.2879465,24.8940303 C14.2161263,24.8070303 14.1948837,24.6940303 14.2242187,24.5890303 L15.088085,21.3360303 C14.4953149,20.9870303 14.124075,20.3590303 14.124075,19.6620303 C14.124075,18.5820303 15.0101954,17.7090303 16.1016611,17.7090303 C17.188069,17.7090303 18.075201,18.5820303 18.075201,19.6620303 C18.075201,20.3590303 17.703961,20.9870303 17.1132141,21.3360303 L17.9780919,24.5890303 L17.9780919,24.5890303 L17.9780919,24.5890303 L17.9780919,24.5890303 Z M22.5553692,13.3930303 L9.71168078,13.3930303 L9.71168078,11.8320303 C9.71168078,9.23603033 12.7443167,7.12203033 16.1330192,7.12203033 C19.5014907,7.12203033 22.5553692,9.23603033 22.5553692,11.8320303 L22.5553692,13.3930303 L22.5553692,13.3930303 Z M22.5553692,13.3930303" id="luggage-storage--dark-grey" fill="#3A434E" sketch:type="MSShapeGroup"></path>
    </g>
</svg>

<svg width="32" height="232" viewBox="0 0 32 232" xmlns="http://www.w3.org/2000/svg" xmlns:sketch="http://www.bohemiancoding.com/sketch/ns"><title>luggage-storage</title><g sketch:type="MSPage" fill="none"><path d="M16.123 124c-5.162 0-9.623 3.505-9.623 7.832v12.555c0 2.596 2.212 4.613 4.838 4.613h9.525c2.625 0 4.637-2.017 4.637-4.613v-12.555c0-4.327-4.171-7.832-9.377-7.832zm1.855 20.589c.028.105.004.218-.065.305-.068.089-.17.138-.283.138h-3.062c-.11 0-.213-.049-.28-.138-.072-.087-.093-.2-.064-.305l.864-3.253c-.593-.349-.964-.977-.964-1.674 0-1.08.886-1.953 1.978-1.953 1.086 0 1.974.873 1.974 1.953 0 .697-.371 1.325-.962 1.674l.865 3.253zm4.577-11.196h-12.844v-1.561c0-2.596 3.033-4.71 6.421-4.71 3.368 0 6.422 2.114 6.422 4.71v1.561zm0 0" id="luggage-storage--white" fill="#206FAC" sketch:type="MSShapeGroup"/><path d="M16.123 84c-5.162 0-9.623 3.505-9.623 7.832v12.555c0 2.596 2.212 4.613 4.838 4.613h9.525c2.625 0 4.637-2.017 4.637-4.613v-12.555c0-4.327-4.171-7.832-9.377-7.832zm1.855 20.589c.028.105.004.218-.065.305-.068.089-.17.138-.283.138h-3.062c-.11 0-.213-.049-.28-.138-.072-.087-.093-.2-.064-.305l.864-3.253c-.593-.349-.964-.977-.964-1.674 0-1.08.886-1.953 1.978-1.953 1.086 0 1.974.873 1.974 1.953 0 .697-.371 1.325-.962 1.674l.865 3.253zm4.577-11.196h-12.844v-1.561c0-2.596 3.033-4.71 6.421-4.71 3.368 0 6.422 2.114 6.422 4.71v1.561zm0 0" fill="#fff" sketch:type="MSShapeGroup"/><path d="M16.123 44c-5.162 0-9.623 3.505-9.623 7.832v12.555c0 2.596 2.212 4.613 4.838 4.613h9.525c2.625 0 4.637-2.017 4.637-4.613v-12.555c0-4.327-4.171-7.832-9.377-7.832zm1.855 20.589c.028.105.004.218-.065.305-.068.089-.17.138-.283.138h-3.062c-.11 0-.213-.049-.28-.138-.072-.087-.093-.2-.064-.305l.864-3.253c-.593-.349-.964-.977-.964-1.674 0-1.08.886-1.953 1.978-1.953 1.086 0 1.974.873 1.974 1.953 0 .697-.371 1.325-.962 1.674l.865 3.253zm4.577-11.196h-12.844v-1.561c0-2.596 3.033-4.71 6.421-4.71 3.368 0 6.422 2.114 6.422 4.71v1.561zm0 0" fill="#67737B" sketch:type="MSShapeGroup"/><path d="M16.123 4c-5.162 0-9.623 3.505-9.623 7.832v12.555c0 2.596 2.212 4.613 4.838 4.613h9.525c2.625 0 4.637-2.017 4.637-4.613v-12.555c0-4.327-4.171-7.832-9.377-7.832zm1.855 20.589c.028.105.004.218-.065.305-.068.089-.17.138-.283.138h-3.062c-.11 0-.213-.049-.28-.138-.072-.087-.093-.2-.064-.305l.864-3.253c-.593-.349-.964-.977-.964-1.674 0-1.08.886-1.953 1.978-1.953 1.086 0 1.974.873 1.974 1.953 0 .697-.371 1.325-.962 1.674l.865 3.253zm4.577-11.196h-12.844v-1.561c0-2.596 3.033-4.71 6.421-4.71 3.368 0 6.422 2.114 6.422 4.71v1.561zm0 0" fill="#3A434E" sketch:type="MSShapeGroup"/></g></svg>
